X:1
T: Lord George Gordon's Reel
C:William Marshall
R:Reel
Q: 232
K:C
M:4/4
L:1/8
|:c2 ec Gc ec|Fd Ec DG, B,G,|c2 ec Gc ec|fa ge c1/2c1/2c c2|
c2 ec Gc ec|Fd Ec DG, B,G,|c2 ec Gc ec|fa ge c1/2c1/2c c2|
((3ege) ce ((3faf) df|((3ege) ce fd df|((3ege) ce ((3faf) df|ge fd c1/2c1/2c cf|
((3ege) ce ((3faf) df|((3ege) ce fd dF|EC FD GE cG|FA GE C1/2C1/2C C2:|
